src/assets/icons/sinbad/quest.svg

<?xml version="1.0" encoding="UTF-8" standalone="no"?>
<svg
   xmlns:dc="http://purl.org/dc/elements/1.1/"
   xmlns:cc="http://creativecommons.org/ns#"
   xmlns:rdf="http://www.w3.org/1999/02/22-rdf-syntax-ns#"
   xmlns:svg="http://www.w3.org/2000/svg"
   xmlns="http://www.w3.org/2000/svg"
   xmlns:sodipodi="http://sodipodi.sourceforge.net/DTD/sodipodi-0.dtd"
   xmlns:inkscape="http://www.inkscape.org/namespaces/inkscape"
   width="24"
   height="24"
   viewBox="0 0 24 24"
   fill="none"
   version="1.1"
   id="svg4"
   sodipodi:docname="quest.svg"
   inkscape:version="0.92.4 (5da689c313, 2019-01-14)">
  <metadata
     id="metadata10">
    <rdf:RDF>
      <cc:Work
         rdf:about="">
        <dc:format>image/svg+xml</dc:format>
        <dc:type
           rdf:resource="http://purl.org/dc/dcmitype/StillImage" />
        <dc:title></dc:title>
      </cc:Work>
    </rdf:RDF>
  </metadata>
  <defs
     id="defs8" />
  <sodipodi:namedview
     pagecolor="#ffffff"
     bordercolor="#666666"
     borderopacity="1"
     objecttolerance="10"
     gridtolerance="10"
     guidetolerance="10"
     inkscape:pageopacity="0"
     inkscape:pageshadow="2"
     inkscape:window-width="1366"
     inkscape:window-height="704"
     id="namedview6"
     showgrid="false"
     inkscape:zoom="9.8333333"
     inkscape:cx="12"
     inkscape:cy="12"
     inkscape:window-x="0"
     inkscape:window-y="27"
     inkscape:window-maximized="1"
     inkscape:current-layer="svg4" />
  <g
     style="fill:none"
     id="g842"
     transform="translate(3.0000001,3)">
    <path
       style="clip-rule:evenodd;fill:#cacccf;fill-opacity:1;fill-rule:evenodd"
       inkscape:connector-curvature="0"
       id="path2-3"
       d="M 1.9999999,0 C 0.89543085,0 -1.5e-7,0.89543001 -1.5e-7,2 v 14 c 0,0.9665 0.685564,1.7729 1.59693005,1.9594 0.1302,0.0266 0.265,0.0406 0.40307,0.0406 H 16 c 1.1046,0 2,-0.8954 2,-2 V 7 C 18,6.44772 17.5523,6 17,6 16.4477,6 16,6.44771 16,7 v 9 H 1.9999999 V 2 H 11 C 11.5523,2 12,1.55228 12,1 12,0.44771501 11.5523,0 11,0 Z M 16.2281,0.74866801 c -0.4589,-0.307228 -1.08,-0.184237 -1.3872,0.27470199 L 7.8873099,11.4108 10.3803,13.0796 17.3338,2.69223 C 17.6411,2.23328 17.5181,1.61218 17.0591,1.30495 Z M 10.0784,13.4792 7.6329299,11.8422 c -0.01247,0.0488 -0.01757,0.0995 -0.01483,0.1505 l 0.10356,1.9306 c 0.01071,0.1997 0.21015,0.3332 0.39888,0.267 l 1.8243303,-0.64 C 9.9930402,13.5334 10.038,13.5093 10.0784,13.4792 Z M 3.9999999,4 c -0.55228,0 -1,0.44772 -1,1 0,0.55228 0.44772,1 1,1 H 10 C 10.5523,6 11,5.55228 11,5 11,4.44772 10.5523,4 10,4 Z m 0,4 c -0.55228,0 -1,0.4477199 -1,0.9999999 0,0.5522801 0.44772,1.0000001 1,1.0000001 h 3 c 0.55228,0 1,-0.44772 1,-1.0000001 0,-0.55228 -0.44772,-0.9999999 -1,-0.9999999 z m -1,5 c 0,-0.5523 0.44772,-1 1,-1 h 1 c 0.55228,0 1,0.4477 1,1 0,0.5523 -0.44772,1 -1,1 h -1 c -0.55228,0 -1,-0.4477 -1,-1 z" />
  </g>
</svg>

<svg width="18" height="18" viewBox="0 0 18 18" fill="none" xmlns="http://www.w3.org/2000/svg">
<path fill-rule="evenodd" clip-rule="evenodd" d="M2 0C0.895431 0 0 0.89543 0 2V16C0 16.9665 0.685564 17.7729 1.59693 17.9594C1.72713 17.986 1.86193 18 2 18H16C17.1046 18 18 17.1046 18 16V7C18 6.44772 17.5523 6 17 6C16.4477 6 16 6.44771 16 7V16H2V2H11C11.5523 2 12 1.55228 12 1C12 0.447715 11.5523 0 11 0H2ZM16.2281 0.748668C15.7692 0.44144 15.1481 0.564431 14.8409 1.02337L7.88731 11.4108L10.3803 13.0796L17.3338 2.69223C17.6411 2.23328 17.5181 1.61218 17.0591 1.30495L16.2281 0.748668ZM10.0784 13.4792L7.63293 11.8422C7.62046 11.891 7.61536 11.9417 7.6181 11.9927L7.72166 13.9233C7.73237 14.123 7.93181 14.2565 8.12054 14.1903L9.94487 13.5503C9.99304 13.5334 10.038 13.5093 10.0784 13.4792ZM4 4C3.44772 4 3 4.44772 3 5C3 5.55228 3.44772 6 4 6H10C10.5523 6 11 5.55228 11 5C11 4.44772 10.5523 4 10 4H4ZM4 8C3.44772 8 3 8.44772 3 9C3 9.55228 3.44772 10 4 10H7C7.55228 10 8 9.55228 8 9C8 8.44772 7.55228 8 7 8H4ZM3 13C3 12.4477 3.44772 12 4 12H5C5.55228 12 6 12.4477 6 13C6 13.5523 5.55228 14 5 14H4C3.44772 14 3 13.5523 3 13Z" fill="white"/>
</svg>
